static/img/logo-tezos.svg

<svg width="23" height="30" viewBox="0 0 23 30" fill="none" xmlns="http://www.w3.org/2000/svg">
<path d="M22.0082 22.1324C21.6962 16.623 14.7529 14.1187 14.0884 13.8615C14.0613 13.848 14.0613 13.8209 14.0748 13.7938L21.2352 6.61942V5.84783C21.2352 5.726 21.1267 5.61771 21.0046 5.61771H7.80952V0L2.94103 1.01525V1.74623H3.21225C3.21225 1.74623 4.40564 1.74623 4.40564 2.93745V5.60417H0.635613C0.567806 5.60417 0.5 5.67185 0.5 5.73954V7.43162H4.4192V16.623C4.4192 19.5063 6.2771 21.5097 9.5318 21.239C10.2234 21.1848 10.8608 20.9141 11.4033 20.5622C11.6474 20.3997 11.7965 20.1425 11.7965 19.8447V18.9378C10.7387 19.6417 9.84371 19.6011 9.84371 19.6011C7.78239 19.6011 7.82308 16.9885 7.82308 16.9885V7.43162H17.316L10.4811 14.3082C10.4675 15.2152 10.454 15.9191 10.454 15.9326C10.454 15.9597 10.4675 15.9732 10.4946 15.9732C16.7599 17.0291 18.4551 21.0766 18.4551 22.2542C18.4551 22.2542 19.1332 27.9802 13.3968 28.3728C13.3968 28.3728 9.64029 28.5352 8.97579 27.0327C8.94866 26.9785 8.97578 26.9244 9.03003 26.8973C9.65385 26.613 10.0742 26.058 10.0742 25.3135C10.0742 24.2035 9.39618 23.2966 7.97225 23.2966C6.81955 23.2966 5.87026 24.2035 5.87026 25.3135C5.87026 25.3135 5.32781 30.1326 13.3832 29.9972C22.5777 29.8348 22.0082 22.1324 22.0082 22.1324Z" fill="white"/>
</svg>

<svg xmlns="http://www.w3.org/2000/svg" width="23" height="30" fill="none"><path fill="#fff" d="M22.008 22.132c-.312-5.509-7.255-8.013-7.92-8.27-.027-.014-.027-.041-.013-.068l7.16-7.175v-.771a.237.237 0 0 0-.23-.23H7.81V0L2.94 1.015v.731h.271s1.194 0 1.194 1.191v2.667H.636c-.068 0-.136.068-.136.136v1.692h3.92v9.191c0 2.883 1.857 4.887 5.112 4.616.691-.054 1.329-.325 1.871-.677a.852.852 0 0 0 .393-.717v-.907c-1.057.704-1.952.663-1.952.663-2.062 0-2.02-2.613-2.02-2.613V7.432h9.492l-6.835 6.876c-.014.907-.027 1.611-.027 1.625 0 .027.013.04.04.04 6.266 1.056 7.961 5.104 7.961 6.281 0 0 .678 5.726-5.058 6.119 0 0-3.757.162-4.421-1.34-.027-.055 0-.109.054-.136.624-.284 1.044-.839 1.044-1.583 0-1.11-.678-2.017-2.102-2.017-1.152 0-2.102.906-2.102 2.017 0 0-.542 4.819 7.513 4.683 9.195-.162 8.625-7.865 8.625-7.865Z"/></svg>
